X: 31620
T: Pant Corlan Yr Wyn
R: polka
M: 2/4
K: Amajor
|:E/G/|A2 c/B/A/c/|d>c Bd|cA- A/B/c/d/|eB GE|
AA/B/ cc/A/|dd/c/ B2|c/B/A GB/G/|A2 A:|
|:e/d/|c2 ed/c/|B/c/d/e/ dc/B/|A2 cB/A/|G/A/B/c/ BE|
AA/B/ cA|dd/c/ Bd|c/B/A/c/ B/A/G/B/|A2- A:|

